X:1
T:Rakish Paddy (reel)
R: reel
M:4/4
L:1/8
O:Trad. (6.10.2015/NS)
K:Ador
AB |: "C/D" c2cB c2AB |     cAAG EGG2  | "D" Add^c defe  |  d=cAG FGAB  |
      "C/D" c2cB c2AB |     cAAG EGG2  | "D" DEFG  ABcA  |  dcAG  FAD2 :|
|:    "G/D" egg2 agg2 |     egg2 ed^cd | "D" eaa2  baa2  |  eaag  edBd  |
      "G/D" egg2 agge | "D" f2fe defg  |     afge  fde^c |1 d=cAG FAD2 :|2 d=cAG FGAB |

%%begintext
ks. Rapalje - Rakish Paddy (Rakish Paddies 2003)
%%endtext
